**kern	**silbe
*ICvox	*
*B-:	*
*M4/4	*
*clefG2	*
r;	.
=1	=1
1r	.
=2	=2
1r	.
=3	=3
1r	.
=4	=4
1r	.
=5	=5
2r	.
8g	Oh
[8d	no
4d]	_
=6	=6
4r	.
8r	.
8f	do-
8g	-n't
4.d	go
=7	=7
2.r	.
8G	it's
8G	ho-
=8	=8
4B-	-urs
8c	til
[8d	dawn
8d]	_
8r	.
4r	.
=9	=9
2r	.
6r	.
6G	and
6B-	there's
=10	=10
8d	no
[8f	one
4f]	_
4.r	.
[8f	who'd
=11	=11
16f]	_
8.e-	ra-
8d	-ther
[8c	be
4c_	_
8c]	_
16f	with
[16f	you
=12	=12
4f]	_
4r	.
2r	.
=13	=13
2r	.
8g	I
[8d	know
4d]	_
=14	=14
2r	.
8f	you
[8d	know
4d]	_
=15	=15
2r	.
8r	.
16G	o-
16B-	-ther
8B-	girls
[8c	like
=16	=16
8c]	_
[8d	me
4d]	_
2r	.
=17	=17
2r	.
8r	.
8B-	I
16B-	let
[16B-	you
16B-]	_
[16B-	take
=18	=18
16B-]	_
8.B-	my
4f	love
4r	.
8r	.
16f	kno-
16f	-wing
=19	=19
6e-	you
6d	don't
[6c	love
8c]	_
8f	_
[4f	me
=20	=20
2f_	_
8f]	_
8f	but
16f	if
16b-	_
[8a	I
=21	=21
2a]	_
8g	could
8a	reach
[4f	you
=22	=22
8f]	_
8d	some
2g	way
8r	.
16f	If
[16b-	I
=23	=23
8b-]	_
[8a	knew
8.a]	_
16g	the
4a	mag-
8f	-ic
8r	.
=24	=24
8.r	.
[16f	it
16f]	_
16B-	would
[16g	take
16g_	_
8g]	_
8r	.
8.r	.
16d	to
=25	=25
8.f	love
[16f	you
4f]	_
8r	.
16d	good
16e-	en-
8f	-ough
8r	.
=26	=26
8r	.
16d	on
16c	the
16d	out-
8B-	_
[16B-	-side
4B-]	_
4r	.
=27	=27
16r	.
16d	and
[8f	make
8f]	_
16f	you
16f	feel
16g	_
16f	_
8f	it
4r	.
=28	=28
8r	.
16d	on
16c	the
16d	in-
8B-	_
[16B-	-side
4B-]	_
4r	.
=29	=29
8c	may-
16d	-be
16d	I
4e-	_
8d	could
8c	make
8B-	you
[8c	stay
=30	=30
2c]	_
2r	.
=31	=31
8r	.
16f	If
[16f	I
4f_	_
8f]	_
8d	could
16c	reach
[16d	_
8d]	_
=32	=32
8d	you
8r	.
4r	.
2r	.
=33	=33
1r	.
=34	=34
1r	.
=35	=35
2r	.
8g	the
[8d	dark
4d]	_
=36	=36
4r	.
8r	.
16r	.
16d	is
16f	get-
[16g	-ting
16g]	_
4d	light
16r	.
=37	=37
2.r	.
8G	and
8G	you're
=38	=38
8B-	dressed
8c	to
16c	go
[16d	_
8d_	_
8d]	_
8r	.
4r	.
=39	=39
2r	.
8r	.
8B-	and
16B-	ne-
[16B-	-ver
16B-]	_
[16B-	said
=40	=40
16B-]	_
[16B-	a
8B-]	_
[4f	word
4f]	_
16r	.
16f	a-
[8e-	-bout
=41	=41
16e-]	_
16d	to-
[8c	-mor-
4c]	_
[2f	-row
=42	=42
4.f]	_
8f	but
4cc	if
[4a	I
=43	=43
4.a]	_
8g	could
8a	reach
[8f	you
4f_	_
=44	=44
8f]	_
8d	some
2g	way
16r	.
16f	If
[8b-	I
=45	=45
8b-]	_
[8a	knew
8.a]	_
16g	the
4a	mag-
8f	-ic
8r	.
=46	=46
16r	.
[16f	it
16f]	_
16B-	would
[16g	take
16g_	_
8g]	_
4..r	.
16d	to
=47	=47
8f	love
[8f	you
4f]	_
16d	good
8e-	en-
16f	-ough
4r	.
=48	=48
8r	.
16d	on
16c	the
16d	out-
8B-	_
[16B-	-side
4B-]	_
4r	.
=49	=49
8r	.
16d	and
8f	make
16f	you
16b-	feel-
16f	_
16g	_
16f	_
8f	-it
8r	.
8r	.
=50	=50
8r	.
16d	on
16c	the
16d	in-
16B-	_
8B-	-side
2r	.
=51	=51
8c	may-
16d	-be
16d	I
4e-	_
8e-	could
[8f	make
8f]	_
8f	you
=52	=52
16d	stay
[8.c	_
2.c]	_
=53	=53
2r	.
16r	.
16f	see
16d	you
[16c	next
8c]	_
[8d	time
=54	=54
4d]	_
4r	.
2r	.
=55	=55
8r	.
[8b-	I'll
8b-]	_
16a	see-
[16g	-ya
4g]	_
4r	.
=56	=56
8r	.
8a	next
4f	time
2r	.
=57	=57
1r	.
r;	.
r;	.
*-	*-
!!!ENC: Nathaniel Condit-Schultz
!!!MBID: 1334353a-5fa3-4aa1-923d-3d7d30033ad8
